X: 1
T:Polka
R:Polka
M:C
O:France
K:G
D2G2G2FE|D2B2B2AB\
|1 c2cB AGFG|ABcAB2G2:|2 c2A2F2D2|B2A2G4:|
|:d4d2e2|d2B2B2AB\
|1 c2cB AGFG|ABcAB2G2:|2 c2A2F2D2|E2F2G4:|
